src/images/dvcircle.svg

<svg width="220" height="220" viewBox="0 0 220 220" fill="none" xmlns="http://www.w3.org/2000/svg">
<circle cx="110" cy="110" r="110" fill="#FCFB63"/>
<path d="M63.208 90.104L50.856 54.584H41.576L58.024 99H68.392L84.776 54.584H75.496L63.208 90.104ZM89.7895 54.584V99H98.6855V54.584H89.7895ZM116.248 54.584H107.352V99H136.792V91.128H116.248V54.584ZM150.998 54.584H142.102V99H171.542V91.128H150.998V54.584ZM85.736 163L68.968 118.584H58.216L41.448 163H50.984L53.928 154.744H73.256L76.136 163H85.736ZM63.592 127.16L70.696 147.384H56.488L63.592 127.16ZM109.224 138.424V145.976H122.472C121.128 151.864 115.88 155.832 109.224 155.832C105.064 155.832 101.672 154.424 99.0475 151.544C96.3595 148.664 95.0155 145.08 95.0155 140.664C95.0155 136.312 96.3595 132.728 99.0475 129.848C101.672 127.032 105.064 125.624 109.224 125.624C115.432 125.624 120.36 129.272 122.152 134.904H131.432C130.472 129.976 127.912 125.88 123.752 122.68C119.592 119.544 114.728 117.944 109.16 117.944C102.44 117.944 96.8715 120.056 92.5195 124.344C88.1035 128.632 85.9275 134.136 85.9275 140.728C85.9275 147.32 88.1035 152.824 92.5195 157.112C96.8715 161.4 102.44 163.576 109.16 163.576C115.944 163.576 121.512 161.4 125.8 157.112C130.088 152.824 132.2 147.384 132.2 140.728C132.2 140.216 132.136 138.872 132.136 138.424H109.224ZM169.958 118.584H138.79V163H169.958V155.128H147.686V144.376H168.229V136.824H147.686V126.392H169.958V118.584Z" fill="black"/>
</svg>

<svg fill="none" height="220" viewBox="0 0 220 220" width="220" xmlns="http://www.w3.org/2000/svg"><circle cx="110" cy="110" fill="#fcfb63" r="110"/><path d="m63.208 90.104-12.352-35.52h-9.28l16.448 44.416h10.368l16.384-44.416h-9.28zm26.5815-35.52v44.416h8.896v-44.416zm26.4585 0h-8.896v44.416h29.44v-7.872h-20.544zm34.75 0h-8.896v44.416h29.44v-7.872h-20.544zm-65.262 108.416-16.768-44.416h-10.752l-16.768 44.416h9.536l2.944-8.256h19.328l2.88 8.256zm-22.144-35.84 7.104 20.224h-14.208zm45.632 11.264v7.552h13.248c-1.344 5.888-6.592 9.856-13.248 9.856-4.16 0-7.552-1.408-10.1765-4.288-2.688-2.88-4.032-6.464-4.032-10.88 0-4.352 1.344-7.936 4.032-10.816 2.6245-2.816 6.0165-4.224 10.1765-4.224 6.208 0 11.136 3.648 12.928 9.28h9.28c-.96-4.928-3.52-9.024-7.68-12.224-4.16-3.136-9.024-4.736-14.592-4.736-6.72 0-12.2885 2.112-16.6405 6.4-4.416 4.288-6.592 9.792-6.592 16.384s2.176 12.096 6.592 16.384c4.352 4.288 9.9205 6.464 16.6405 6.464 6.784 0 12.352-2.176 16.64-6.464s6.4-9.728 6.4-16.384c0-.512-.064-1.856-.064-2.304zm60.734-19.84h-31.168v44.416h31.168v-7.872h-22.272v-10.752h20.543v-7.552h-20.543v-10.432h22.272z" fill="#000"/></svg>
